X:1
T:Lamentation over Boston
T:Lamentation over Boston
T:Alto
T:William Billings
C:William Billings
L:1/8
M:3/2
K:C
V:1 treble 
V:1
 E8 E4 | E4 E4 E2 A2 | G2 G2 G4 E4 | E4 F4 E4 |[M:2/2] E8 | z4 E4 | E8 | z4 E4 | E8 | z4 G4 G8 | %10
w: By the|Ri- vers of *|Wa- ter- town we|sat down and|wept,|we|wept,|we|wept|we wept|
 z4 E4 | G2 A2 D2 GF | E2 F2 E2 A2 | G4 G4 | z4 E4 | G2 GF E2 E2 | F4 E4 | E4 E4 | E4 E2 E2 E8 | %19
w: when|we re- mem- ber'd *|thee * * O|Bos- ton,|when|we re- * mem- ber'd|thee, O|Bos- ton|As for our Friends,|
 G4 GF EA | G4 G2 G2 | A4 A2 EF | G4 G2 G2 F2 F2 E2 E2 | E2 D2 C2 F2 | E4 E2 EF | G4 G2 G2 | %26
w: Lord God * of *|Heav- en, pre-|serve them de- *|fend them, de liv- er and re-|store * them un-|to us, pre- *|serve them, de-|
 G4 G2 G2 | G2 G2 A2 B2 | A4 G2 GF | E4 F4 | E4 E4- | E8 | z8 | z8 | z8 | z8 | z8 | z8 | z8 | z8 | %40
w: fend them, de-|liv- er and re-|store them un- *|to us|a- gain.||||||||||
 z8 | z8 | E4 A2 A2 | A8 | E4 E4 |[M:3/2] E8 z4 |[M:2/2] G4 E2 E2 | E8 | G4 G4 | G6 G2 | %50
w: ||For- bid it,|Lord|God, for-|bid,|For- bid it,|Lord|God, for-|bid that|
 A2 GF E2 G2 | G2 A4 G2 | G4 G2 A2 | G6 G2 | A2 B2 A2 G2 | F2 F2 E4 | E8 | z4 E4 E2 E2 E2 E2 | %58
w: those * * who have|suck- ed Bos-|ton- i- an|Breasts should|thirst * for A-|mer- i- can|Blood.|A voice was heard in|
 A2 A2 A2 E2 | E2 G2 G2 F2 | E2 E2 E4 | z8 | z8 | G3 A F3 G | E4 E4 | z4 A4 | G3 F E4 | E4 z4 | %68
w: Rox- bur- y which|ec- cho'd thro' the|Con- ti- nent|||weep- * * *|* ing,|weep-||ing|
 G4 G2 G2 | G4 G4 | G4 G2 G2 | A4 A4 | G4 G4 | E3 F G2 G2 | A4 E2 E2 | F4 E2 E2 | E4 E4 | z4 E4 | %78
w: weep- ing for|Bos- ton|weep- ing for|Bos- ton|weep- ing|weep- * ing for|Bos- ton be-|cause of their|Dan- ger.|Is|
 E2 E2 EF G2 | G6 G2 | G2 G2 A2 GF | G6 GF | E4 EF GF | E3 E E2 DD | D2 D2 E2 EF | G4 G2 G2 | %86
w: Bos- ton my * dear|Town, is|it my na- tive *|Place? for *|since their * Ca- *|lam- i- ty I do|ear- nest- ly re- *|mem- ber it|
 G6 z2 | z8 | z4 z2 GF | E2 E2 E2 D2 | G2 F2 E2 E2 | E8 |: z4 E4 | G2 G2 G2 GG | G2 G2 G2 GF | %95
w: still!||I do|ear- nest- ly re-|mem- * ber it|still.|If|I for- get thee, if|I for- get thee, *|
 E3 F E2 F2 | E2 E2 E2 E2 E8 | z4 E4 | G2 GF E2 E2 | E2 E2 E2 E2 | EF GF EF G2 | G8 | z4 E4 | %103
w: yea, if I do|not re- mem- ber thee,|Then|let my * num- bers|cease to flow, Then|be * my * Muse * un-|kind,|Then|
 G2 GF E2 E2 | E2 E2 E4- | E4 E4 | E2 E2 F2 E2 | E8 | z4 E4 | E2 E2 EF G2 | G2 GF E2 E2 | %111
w: let my * Tongue for-|get to move|* and|ev- er be con-|fin'd;|Let|hor- rid Jar- * gon|split the * Air and|
 E2 D2 G2 GF | E2 G6 | z4 E4 | G2 G2 G2 GF | EF GF EF G2 | G2 GF EF GF | E2 A6 | z4 E4 | %119
w: rive my nerves a- *|sun- der.|Let|hate- ful dis- cord *|greet * my * ear * as|ter- ri- * ble * as *|Thun- der.|Let|
 C2 D2 EF GF | ED CD E2 EF | G2 A2 A2 G2 | G8 | z4 E4 | G2 C2 F2 FE | D2 E2 E2 A2 | G2 F2 E2 E2 | %127
w: har- mo- ny * be *|ban- * ish'd * hence and *|Con- so- nance de-|part;|Let|dis- so- nance e- *|rect her throne and|reign with- in my|
 E8 :| %128
w: Heart.|

